logos/aws-api-gateway.svg

<?xml version="1.0" encoding="UTF-8"?>
<svg width="256px" height="256px" viewBox="0 0 256 256" version="1.1" xmlns="http://www.w3.org/2000/svg" xmlns:xlink="http://www.w3.org/1999/xlink" preserveAspectRatio="xMidYMid">
    <title>AWS API Gateway</title>
    <defs>
        <linearGradient x1="0%" y1="100%" x2="100%" y2="0%" id="linearGradient-1">
            <stop stop-color="#B0084D" offset="0%"></stop>
            <stop stop-color="#FF4F8B" offset="100%"></stop>
        </linearGradient>
    </defs>
    <g>
        <rect fill="url(#linearGradient-1)" x="0" y="0" width="256" height="256"></rect>
        <path d="M109.008,178.023565 L118.4,178.023565 L118.4,171.568956 L109.008,171.568956 L109.008,178.023565 Z M124.8,178.023565 L134.4,178.023565 L134.4,171.568956 L124.8,171.568956 L124.8,178.023565 Z M86.4,46.8142756 L44.8,67.4625696 L44.8,195.818922 L86.4,209.886742 L86.4,46.8142756 Z M92.8,87.6590406 L92.8,171.568956 L102.4,171.568956 L102.4,178.023565 L92.8,178.023565 L92.8,214.372696 C92.8,215.411888 92.304,216.386533 91.4688,216.993267 C90.9184,217.393452 90.2624,217.6 89.6,217.6 C89.2608,217.6 88.9152,217.545136 88.5824,217.43218 L40.5824,201.202066 C39.2768,200.759925 38.4,199.527095 38.4,198.142581 L38.4,65.4519587 C38.4,64.225583 39.0944,63.0992538 40.1888,62.5570666 L88.1888,38.7331052 C89.1776,38.2393276 90.352,38.2974191 91.2896,38.8880158 C92.2272,39.4753852 92.8,40.51135 92.8,41.6279973 L92.8,81.204432 L102.4,81.204432 L102.4,87.6590406 L92.8,87.6590406 Z M140.8,178.023565 L150.4,178.023565 L150.4,171.568956 L140.8,171.568956 L140.8,178.023565 Z M141.008,87.6590406 L150.4,87.6590406 L150.4,81.204432 L141.008,81.204432 L141.008,87.6590406 Z M125.008,87.6590406 L134.4,87.6590406 L134.4,81.204432 L125.008,81.204432 L125.008,87.6590406 Z M109.008,87.6590406 L118.4,87.6590406 L118.4,81.204432 L109.008,81.204432 L109.008,87.6590406 Z M211.2,67.4625696 L169.6,46.8142756 L169.6,209.886742 L211.2,195.818922 L211.2,67.4625696 Z M217.6,198.142581 C217.6,199.527095 216.7232,200.759925 215.4176,201.202066 L167.4176,217.43218 C167.0848,217.545136 166.7392,217.6 166.4,217.6 C165.7376,217.6 165.0816,217.393452 164.5312,216.993267 C163.696,216.386533 163.2,215.411888 163.2,214.372696 L163.2,178.023565 L157.008,178.023565 L157.008,171.568956 L163.2,171.568956 L163.2,87.6590406 L157.008,87.6590406 L157.008,81.204432 L163.2,81.204432 L163.2,41.6279973 C163.2,40.51135 163.7728,39.4753852 164.7104,38.8880158 C165.648,38.2974191 166.8192,38.2393276 167.8112,38.7331052 L215.8112,62.5570666 C216.9056,63.0992538 217.6,64.225583 217.6,65.4519587 L217.6,198.142581 Z M137.3888,108.18147 L131.4112,105.864265 L115.4112,147.819223 L121.3888,150.136428 L137.3888,108.18147 Z M159.0624,128.668398 C160.3136,127.406523 160.3136,125.363639 159.0624,124.10499 L146.2624,111.195772 L141.7376,115.759181 L152.2752,126.386694 L141.7376,137.014208 L146.2624,141.577616 L159.0624,128.668398 Z M109.7376,141.577616 L96.9376,128.668398 C95.6864,127.406523 95.6864,125.363639 96.9376,124.10499 L109.7376,111.195772 L114.2624,115.759181 L103.7248,126.386694 L114.2624,137.014208 L109.7376,141.577616 Z" fill="#FFFFFF"></path>
    </g>
</svg>

<svg width="256" height="256" xmlns="http://www.w3.org/2000/svg" preserveAspectRatio="xMidYMid">
	<defs>
		<linearGradient x1="0%" y1="100%" x2="100%" y2="0%" id="a">
			<stop stop-color="#B0084D" offset="0%"/>
			<stop stop-color="#FF4F8B" offset="100%"/>
		</linearGradient>
	</defs>
	<path fill="url(#a)" d="M0 0h256v256H0z"/>
	<path d="M109.008 178.024h9.392v-6.455h-9.392v6.455Zm15.792 0h9.6v-6.455h-9.6v6.455ZM86.4 46.814 44.8 67.463v128.356l41.6 14.068V46.814Zm6.4 40.845v83.91h9.6v6.455h-9.6v36.349c0 1.039-.496 2.014-1.331 2.62a3.177 3.177 0 0 1-2.887.44l-48-16.23a3.226 3.226 0 0 1-2.182-3.06V65.452c0-1.226.694-2.353 1.789-2.895l48-23.824a3.163 3.163 0 0 1 3.1.155 3.233 3.233 0 0 1 1.511 2.74v39.576h9.6v6.455h-9.6Zm48 90.365h9.6v-6.455h-9.6v6.455Zm.208-90.365h9.392v-6.455h-9.392v6.455Zm-16 0h9.392v-6.455h-9.392v6.455Zm-16 0h9.392v-6.455h-9.392v6.455ZM211.2 67.463l-41.6-20.649v163.073l41.6-14.068V67.463Zm6.4 130.68a3.226 3.226 0 0 1-2.182 3.06l-48 16.23a3.173 3.173 0 0 1-2.887-.44 3.238 3.238 0 0 1-1.331-2.62v-36.35h-6.192v-6.454h6.192v-83.91h-6.192v-6.455h6.192V41.628c0-1.117.573-2.153 1.51-2.74a3.163 3.163 0 0 1 3.101-.155l48 23.824a3.233 3.233 0 0 1 1.789 2.895v132.69Zm-80.211-89.962-5.978-2.317-16 41.955 5.978 2.317 16-41.955Zm21.673 20.487a3.243 3.243 0 0 0 0-4.563l-12.8-12.91-4.524 4.564 10.537 10.628-10.537 10.627 4.524 4.564 12.8-12.91Zm-49.324 12.91-12.8-12.91a3.243 3.243 0 0 1 0-4.563l12.8-12.91 4.524 4.564-10.537 10.628 10.537 10.627-4.524 4.564Z" fill="#FFF"/>
</svg>
